X: 17824
T: Hop-tu-Naa
R: slide
M: 12/8
K: Amajor
e|e2e c2A c2e ece|f2e dcB ABA Acd|
efe c2A c2e ece|f2e dcB ABA A3||
e2f e2c e2f e2c|e2f e2d c2B c2d|
e2f e2c e2f efg|a2e fed cdB A2||

